src/basic/100/u25B3-up-triangle.svg

<svg width="121" height="128" viewBox="0 0 121 128" fill="none" xmlns="http://www.w3.org/2000/svg">
<path fill-rule="evenodd" clip-rule="evenodd" d="M60.1305,5.99461l0.4331,0.75074l59.1364,102.50665l0.432,0.75h-0.866h-118.27141h-0.86569l0.43259,-0.75l59.1359,-102.50665zM1.86028,109.002h116.54072l-58.2705,-101.00621z" fill="black"/>
</svg>

<svg width="121" height="128" viewBox="0 0 121 128" fill="none" xmlns="http://www.w3.org/2000/svg">
<path fill-rule="evenodd" clip-rule="evenodd" d="M60.1305 5.99461L60.5636 6.74535L119.7 109.252L120.132 110.002H119.266H0.994593H0.128906L0.561496 109.252L59.6974 6.74535L60.1305 5.99461ZM1.86028 109.002H118.401L60.1305 7.99579L1.86028 109.002Z" fill="black"/>
</svg>
